X: 36029
T: Scandinavian
R: waltz
M: 3/4
K: Eminor
D2|"Em"E3 F GA|B2e3e|"C"e3 f ed|"G"B4B2|"Am"c2 Ac BA|"G"BA G2 D2|"C"EG AB AG|"D"FE DE FD|
"Em"E3F GA|B2e3e|"C"e3f ed|"G"B4B2|"Am"cB Ac BA|"G"BAG2D2|"D"EG A2 F2|
"G"G3D EF|G3F BG|"D"AF DE FD|"Em"E3F GA|"G"B4B2|"Am"cB AB cA|
"G"BA GA BD|"C"EF GF GA|"D"FE DE FD|"Em"E3F GA|B2e3e|
"C"e3f ed|"G"B4B2|"Am"cB Ac BA|"G"BA G2 D2|"D"FGA2F2|"G"G6|

